!!!COM:	Bach, Johann Sebastian
!!!CDT:	1685/02/21/-1750/07/28/
!!!OTL@@DE:	Wie bist du, Seele, in mir so gar betr&uuml;bt
!!!SCT:	BWV 435
!!!PC#:	242
!!!AGN:	chorale
**kern	**kern	**kern	**kern
*ICvox	*ICvox	*ICvox	*ICvox
*Ibass	*Itenor	*Ialto	*Isoprn
*I"Bass	*I"Tenor	*I"Alto	*I"Soprano
*	*oclefC4	*oclefC3	*oclefC1
*clefF4	*clefGv2	*clefG2	*clefG2
*k[f#]	*k[f#]	*k[f#]	*k[f#]
*e:	*e:	*e:	*e:
*M4/4	*M4/4	*M4/4	*M4/4
*met(c)	*met(c)	*met(c)	*met(c)
*MM100	*MM100	*MM100	*MM100
8EL	8GL	8eL	4b
8F#J	8AJ	8d#J	.
=1	=1	=1	=1
[4G	8B	8eL	4b
.	4e	8BJ	.
8GL]	.	8c#L	4a
8F#J	8A	8d#J	.
8EL	2B	8eL	2g
8F#J	.	8d#J	.
8GL	.	4e	.
8EJ	.	.	.
=2	=2	=2	=2
4BB;	4B;	8eL	4f#;
.	.	8d#;J	.
4E	4B	[4e	4g
4F#	8AL	8eL]	4a
.	16BL	8d#J	.
.	16cnXJJ	.	.
8GL	4B	4e	4g
8EJ	.	.	.
=3	=3	=3	=3
4AA#	8c#L	4e	4f#
.	8F#	.	.
4BB	8B	4d#	4f#
.	8AJ	.	.
4EE;	4G;	4B;	4e;
4BB	4B	4d#	4f#
=4	=4	=4	=4
4E	8BL	4e	4g
.	8cnXJ	.	.
4F#	8BL	8dnXL	4a
.	8AJ	8cJ	.
4G	8GL	8BL	2b
.	8BJ	8dJ	.
8GGL	4d	4g	.
8BBJ	.	.	.
=5	=5	=5	=5
4D;	4d;	4f#;	4a;
8AL	8cL	4e	4cc
8GJ	8BJ	.	.
8F#L	8AL	4d	4cc
8DJ	8F#J	.	.
8GL	[4G	4d	4b
8GGJ	.	.	.
=6	=6	=6	=6
8CL	4G]	4e	4a
8AAJ	.	.	.
4D	4F#	8dL	4a
.	.	8cJ	.
4GG;	4D;	4B;	4g;
8DL	8F#L	4d	4a
8EJ	8GJ	.	.
=7	=7	=7	=7
8F#L	4A	8dL	4a
8G	.	8c#J	.
8F#	4A	8dL	4a
8EJ	.	8eJ	.
8DL	4d	4f#	4a
8E	.	.	.
8D	4A	4d	4f#
8CnXJ	.	.	.
=8	=8	=8	=8
8BBL	4B	8dL	4g
8C	.	8eJ	.
8BB	4c	4f#	4a
8AAJ	.	.	.
8GGL	4d	4g	2b
8AA	.	.	.
8BB	[4G	4d	.
8CJ	.	.	.
=9	=9	=9	=9
4D;	8GL]	4d;	4a;
.	8F#;J	.	.
4D#	8BL	4f#	4f#
.	8AJ	.	.
4E	4G	8BL	4g
.	.	8eJ	.
4F#	[4d	8dnXL	4a
.	.	8cJ	.
=10	=10	=10	=10
4G	8dL]	4B	4b
.	8fJ	.	.
4G#	8eL	[4e	4b
.	8dJ	.	.
4A	4c	8eL]	4a
.	.	8d#J	.
4A#	4c#	4e	8gnXL
.	.	.	8f#J
=11	=11	=11	=11
4B	4.B	4e	2f#
4BB	.	4d#	.
.	8AnX	.	.
4E;	4G#;	4B;	4e;
==	==	==	==
*-	*-	*-	*-
!!!YOR1: 371 vierstimmige Choralges&auml;nge von Johann Sebastian Bach, 
!!!YOR2: 4th ed. by Alfred D&ouml;rffel (Leipzig: Breitkopf und H&auml;rtel, 
!!!YOR2: c.1875). 178 pp. Plate "V.A.10".  reprint: J.S. Bach, 371 Four-Part 
!!!YOR4: Chorales (New York: Associated Music Publishers, Inc., c.1940).
!!!SMS: B&H, 4th ed, Alfred D&ouml;rffel, c.1875, plate V.A.10
!!!EED:  Craig Stuart Sapp
!!!EEV:  2009/05/22
